X:3086
T:Clear View Reel
R:Reel
C:Bruce Osborne  --  Feb.1 1993
M:2/4
L:1/16
K:F
ce|f2fg fcAc|BABc dfed|cAFA cAFA|GFGA G2ce|
f2fg fcAc|BABc dfed|cAFA BGEG|F2FE F2:|
|:fg|a2ab afcf|agab afcf|gfga gece|baag a2fg|
a2ab afcf|agab afcf|gfga gece|fefg f2:|


